X:1
T:I Will Sing of the Mercies of the LORD
T:Text: Psalm 89:1, 5, 8; st. 1 vers. James H. Filmore, 1849-1936 Tune: James H. Filmore, 1849-1936 Text st. 2 under copyright; for copyrighted materials see Psalter Hymnal 169
T:PM FILLMORE www.hymnary.org/text/i_will_sing_of_the_mercies_of_the_lord_f
T:I Will Sing of the Mercies of the LORD
T:This hymn is in the public domain. You may freely use this score for personal and congregational worship. If you reproduce the score, please credit Hymnary.org as the source. 
T:This hymn is in the public domain. You may freely use this score for personal and congregational worship. If you reproduce the score, please credit Hymnary.org as the source. 
T:This hymn is in the public domain. You may freely use this score for personal and congregational worship. If you reproduce the score, please credit Hymnary.org as the source. 
Z:This hymn is in the public domain. You may freely use this score for personal and congregational worship. If you reproduce the score, please credit Hymnary.org as the source.
%%score ( 1 2 ) ( 3 4 )
L:1/8
M:4/4
K:D
V:1 treble nm="SOPRANO ALTO" snm="S. A."
V:2 treble 
V:3 bass nm="TENOR BASS" snm="T. B."
V:4 bass 
V:1
"^A7""^1" DE |"^D" F2 F>F FE FG | A2 d2 AF GF |"^A" E6 AG |"^D" F6"^A7" DE |"^D" F2 F>F FE FG | %6
w: I will|sing of the mer- cies of the|LORD for- ev- er, I will|sing, I will|sing. I will|sing of the mer- cies of the|
 A2 d2 AF GF |"^A7" E2 A>A AG FE |"^D" D6 |1 AA |"^G" B4- Bd cB |"^D" A6 F2 |"^A7" E>F G4 B2 || %13
w: LORD for- ev- er, I will|sing of the mer- cies of the|LORD.|With my|mouth * will I make|known your|faith- ful- ness, your|
"^Page 2""^D" B>A A4 AA |"^G" B4- Bd"^I Will Sing of the Mercies of the LORD" cB |"^D" A6 F2 | %16
w: faith- ful- ness; with my|mouth * will I make|known your|
"^A/E" E>A AB c2 Bc |"^E7" B4"^A" A2"^A7" DE |"^D" F2 F>F | FE FG | A2 d2 AF GF | %21
w: faith- ful- ness to all gen- er-|a- tions. I will|sing of the|mer- cies of the|LORD for- ev- er, I will|
"^A7" E2 A>A AG FE |"^D" D6 x2 |] %23
w: sing of the mer- cies of the|LORD.|
V:2
 B,C | D2 D>D DC DE | F2 F2 FD ED | C6 CC | D6 B,C | D2 D>D DC DE | F2 F2 FD ED | C2 C>C CC CC | %8
 A,6 |1 FF | G4- GB AG | F6 D2 | C>D E4 G2 || G>F F4 FF | G4- GB AG | F6 D2 | C>C CC E2 EE | %17
 D4 C2 B,C | D2 D>D | DC DE | F2 F2 FD ED | C2 C>C CC CC | A,6 x2 |] %23
V:3
 G,G, | A,2 A,>A, A,A, A,A, | A,2 A,2 DA, A,A, | A,6 E,A, | A,6 G,G, | A,2 A,>A, A,A, A,A, | %6
 A,2 A,2 DA, A,A, | A,2 E,>E, E,B, A,G, | F,6 |1 DD | D4- DD DD | D6 A,2 | A,>A, A,4 C2 || %13
 D>D D4 DD | D4- DD DD | D6 A,2 | A,>A, A,A, A,2 ^G,A, | (A,2 ^G,2) A,2 =G,G, | A,2 A,>A, | %19
 A,A, A,A, | A,2 A,2 DA, A,A, | A,2 E,>E, E,B, A,G, | F,6 x2 |] %23
V:4
 A,,A,, | D,2 D,>D, D,G, F,E, | D,2 D,2 D,D, D,D, | A,,6 A,,A,, | D,6 A,,A,, | %5
 D,2 D,>D, D,G, F,E, | D,2 D,2 D,D, D,D, | A,,2 A,,>A,, A,,A,, A,,A,, | D,6 |1 D,D, | %10
 G,4- G,G, G,G, | D,6 D,2 | A,,>A,, A,,4 A,,2 || D,>D, D,4 D,D, | G,4- G,G, G,G, | D,6 D,2 | %16
 E,>E, E,E, E,2 E,E, | E,4 A,,2 A,,A,, | D,2 D,>D, | D,G, F,E, | D,2 D,2 D,D, D,D, | %21
 A,,2 A,,>A,, A,,A,, A,,A,, | D,6 x2 |] %23

